Papirus/32x32/places/folder-meocloud.svg

<?xml version="1.0" encoding="UTF-8" standalone="no"?>
<svg xmlns="http://www.w3.org/2000/svg" height="32" width="32" version="1">
 <path style="opacity:0.2;fill:#000000;fill-opacity:1" d="m 28,26.75055 0,-13.49477 c 0,-0.69222 -0.56175,-1.32597 -1.25,-1.2495 l -10,0 -2.25,2.1e-4 -10.25,0 C 3,12.00649 3,13.20396 3,13.20396 L 3,26.7505 C 3,27.44272 3.5575,28 4.25,28 l 22.5,0 C 27.4425,28 28,27.44272 28,26.7505 Z"/>
 <path d="M 3,23.75027 3,7 C 3,6 3,5 4,5 l 9,0 c 1,0 1,1 1,2.0001 l 12.814,0 c 0,0 1.1859,0.006 1.1859,1.2558 l 0,15.49452 C 27.9999,24.44266 27.4424,25 26.7499,25 L 4.2504,25 c -0.6925,0 -1.25,-0.55729 -1.25,-1.24958 z" style="fill:#4877b1;fill-opacity:1"/>
 <path style="opacity:0.2;fill:#000000;fill-opacity:1" d="m 28,24.75055 0,-13.49477 c 0,-0.69222 -0.56175,-1.32597 -1.25,-1.2495 l -10,0 -2.25,2.1e-4 -10.25,0 C 3,10.00649 3,11.20396 3,11.20396 L 3,24.7505 C 3,25.44272 3.5575,26 4.25,26 l 22.5,0 C 27.4425,26 28,25.44272 28,24.7505 Z"/>
 <rect style="opacity:1;fill:#dcdcdc;fill-opacity:1;" width="21" height="10" x="5" y="9" ry="1.25" rx="1.167"/>
 <path d="m 28,25.75055 0,-13.49477 c 0,-0.69222 -0.56175,-1.32597 -1.25,-1.2495 l -10,0 -2.25,2.1e-4 -10.25,0 C 3,11.00649 3,12.20396 3,12.20396 L 3,25.7505 C 3,26.44272 3.5575,27 4.25,27 l 22.5,0 C 27.4425,27 28,26.44272 28,25.7505 Z" style="fill:#5294e2;fill-opacity:1"/>
 <path style="opacity:0.1;fill:#ffffff;fill-opacity:1" d="M 4,5 C 3,5 3,6 3,7 L 3,8 C 3,7 3,6 4,6 l 9,0 c 1,0 1,0.9999 1,2 L 26.81445,8 C 26.81445,8 28,8.006 28,9.25586 l 0,-1 C 28,7.00606 26.81445,7 26.81445,7 L 14,7 C 14,5.9999 14,5 13,5 L 4,5 Z"/>
 <path style="opacity:0.65" d="m 16.199,15 c -1.202,0 -2.302,0.676 -2.847,1.748 C 13.113,16.651 12.857,16.6 12.6,16.6 c -1.001,0 -1.845,0.741 -1.979,1.732 C 9.653,18.665 9.001,19.576 9,20.6 9,21.925 10.075,23 11.4,23 l 7.2,0 C 19.925,23 21,21.925 21,20.6 20.999,19.581 20.356,18.675 19.395,18.338 19.398,18.292 19.399,18.245 19.4,18.199 19.4,16.432 17.966,15 16.199,15 Z m 0,2 c 0.685,0 1.197,0.511 1.199,1.195 l 0,0.006 a 2.0002,2.0002 0 0 0 1.334,2.024 c 0.167,0.058 0.267,0.199 0.268,0.375 0,0.244 -0.156,0.4 -0.4,0.4 l -7.2,0 C 11.156,21 11.001,20.845 11,20.602 L 11,20.6 c 10e-4,-0.178 0.102,-0.318 0.27,-0.375 a 2.0002,2.0002 0 0 0 1.332,-1.623 2.0002,2.0002 0 0 0 2.533,-0.946 C 15.341,17.25 15.747,17 16.199,17 Z"/>
</svg>

<svg xmlns="http://www.w3.org/2000/svg" width="32" height="32" version="1">
 <rect style="opacity:0.2" width="25" height="16" x="3" y="12" rx="1.25" ry="1.25"/>
 <path style="fill:#4877b1" d="M 3,21.75 C 3,22.442 3.5575,23 4.25,23 H 26.75 C 27.442,23 28,22.442 28,21.75 V 8.25 C 28,7.5575 27.442,7 26.75,7 H 14 V 6.25 C 14,5.5575 13.443,5 12.75,5 H 4.25 C 3.5575,5 3,5.5575 3,6.25"/>
 <rect style="opacity:0.2" width="25" height="16" x="3" y="10" rx="1.25" ry="1.25"/>
 <rect style="fill:#dcdcdc" width="21" height="10" x="5" y="9" rx="1.25" ry="1.25"/>
 <rect style="fill:#5294e2" width="25" height="16" x="3" y="11" rx="1.25" ry="1.25"/>
 <path style="opacity:0.1;fill:#ffffff" d="M 4.25 5 C 3.5575 5 3 5.5575 3 6.25 L 3 7.25 C 3 6.5575 3.5575 6 4.25 6 L 12.75 6 C 13.443 6 14 6.5575 14 7.25 L 14 8 L 26.75 8 C 27.442 8 28 8.5575 28 9.25 L 28 8.25 C 28 7.5575 27.442 7 26.75 7 L 14 7 L 14 6.25 C 14 5.5575 13.443 5 12.75 5 L 4.25 5 z"/>
 <path style="opacity:0.65" d="M 16.2,15 C 14.998,15 13.897,15.676 13.352,16.748 13.113,16.651 12.857,16.6 12.6,16.6 11.599,16.6 10.755,17.341 10.621,18.332 9.653,18.665 9.001,19.576 9,20.6 9,21.925 10.075,23 11.4,23 H 18.6 C 19.925,23 21,21.925 21,20.6 20.999,19.581 20.356,18.675 19.395,18.338 19.398,18.292 19.399,18.245 19.4,18.199 19.4,16.432 17.967,15 16.2,15 Z M 16.199,17 C 16.884,17 17.396,17.511 17.398,18.195 V 18.201 C 17.337,19.099 17.883,19.927 18.732,20.225 18.899,20.283 18.999,20.424 19,20.6 19,20.844 18.844,21 18.6,21 H 11.4 C 11.156,21 11.001,20.845 11,20.602 V 20.6 C 11.001,20.422 11.102,20.282 11.27,20.225 11.985,19.979 12.5,19.351 12.602,18.602 13.564,18.992 14.664,18.581 15.135,17.656 15.341,17.25 15.747,17 16.199,17 Z"/>
</svg>
